packages/icons/svg/Fill/compass.svg

<svg fill="none" height="24" viewBox="0 0 24 24" width="24" xmlns="http://www.w3.org/2000/svg"><path clip-rule="evenodd" d="m10.7969 13.2129 1.692-.684.714-1.742-1.692.684zm5.1284-3.79303-1.746 4.25803c-.102.25-.3.447-.55.549l-4.21298 1.701c-.123.049-.25.072-.374.072-.271 0-.525-.117-.713-.31-.018-.017-.037-.031-.054-.048-.009-.011-.015-.024-.023-.035-.238-.276-.326-.666-.178-1.027l1.746-4.258c.102-.25.30098-.44703.55098-.54803l4.213-1.702c.394-.156.825-.044 1.099.246.291.276.403.708.242 1.102zm-3.925-7.41987c-5.51398 0-9.99998 4.486-9.99998 10s4.486 10 9.99998 10c5.514 0 10-4.486 10-10s-4.486-10-10-10z" fill="#6b7280" fill-rule="evenodd"/></svg>

<svg width="24" height="24" viewBox="0 0 24 24" fill="none" xmlns="http://www.w3.org/2000/svg">
<g id="Icon/Fill/compass">
<path id="Mask" fill-rule="evenodd" clip-rule="evenodd" d="M10.7968 13.2129L12.4888 12.5289L13.2028 10.7869L11.5108 11.4709L10.7968 13.2129ZM15.9252 9.41989L14.1792 13.6779C14.0772 13.9279 13.8792 14.1249 13.6292 14.2269L9.41624 15.9279C9.29324 15.9769 9.16624 15.9999 9.04224 15.9999C8.77124 15.9999 8.51724 15.8829 8.32924 15.6899C8.31124 15.6729 8.29224 15.6589 8.27524 15.6419C8.26624 15.6309 8.26024 15.6179 8.25224 15.6069C8.01424 15.3309 7.92624 14.9409 8.07424 14.5799L9.82024 10.3219C9.92224 10.0719 10.1212 9.87489 10.3712 9.77389L14.5842 8.07189C14.9782 7.91589 15.4092 8.02789 15.6832 8.31789C15.9742 8.59389 16.0862 9.02589 15.9252 9.41989ZM12.0002 1.99989C6.48624 1.99989 2.00024 6.48589 2.00024 11.9999C2.00024 17.5139 6.48624 21.9999 12.0002 21.9999C17.5142 21.9999 22.0002 17.5139 22.0002 11.9999C22.0002 6.48589 17.5142 1.99989 12.0002 1.99989Z" fill="#000000"/>
</g>
</svg>
